public/favicon/any.svg

<svg width="192" height="192" viewBox="0 0 192 192" fill="none" xmlns="http://www.w3.org/2000/svg">
<g opacity="0.92">
<rect width="192" height="192" rx="30" fill="url(#paint0_linear_431_417)"/>
<path d="M59.6131 99.3897C59.6131 104.073 63.4177 107.886 68.0945 107.886C72.7729 107.886 76.5791 104.073 76.5791 99.3897C76.5791 94.7051 72.7729 90.8956 68.0945 90.8956C63.4177 90.8956 59.6131 94.7051 59.6131 99.3897Z" fill="white"/>
<path d="M85.6498 99.3897C85.6498 104.073 89.4561 107.886 94.1345 107.886C98.8113 107.886 102.614 104.073 102.614 99.3897C102.614 94.7051 98.8113 90.8956 94.1345 90.8956C89.4561 90.8956 85.6498 94.7051 85.6498 99.3897Z" fill="white"/>
<path d="M111.685 99.3897C111.685 104.073 115.49 107.886 120.168 107.886C124.844 107.886 128.648 104.073 128.648 99.3897C128.648 94.7051 124.844 90.8956 120.168 90.8956C115.49 90.8956 111.685 94.7051 111.685 99.3897Z" fill="white"/>
<path d="M166.588 154.263C166.456 154.072 166.257 153.799 165.999 153.448C164.266 151.105 158.992 143.976 157.929 134.39C157.486 130.4 153.895 127.524 149.91 127.966C145.925 128.41 143.052 132.005 143.493 135.995C143.921 139.831 144.833 143.634 146.226 147.39C141.131 146.442 135.616 145.749 130.631 145.782C122.163 145.844 115.887 147.988 110.349 149.883C104.875 151.755 100.143 153.372 93.1989 153.372C68.2429 153.372 51.1434 137.035 43.4659 121.749C32.153 99.2307 39.1064 78.7798 46.9336 65.588C56.642 49.2139 74.8025 38.6341 93.1989 38.6341C99.4835 38.6341 115.566 39.9409 129.162 52.0573C132.158 54.7263 136.747 54.4574 139.414 51.4577C142.079 48.4579 141.812 43.8613 138.817 41.1939C121.491 25.7551 101.143 24.0898 93.1989 24.0898C81.4337 24.0898 69.6782 27.352 59.2098 33.5258C48.9954 39.5482 40.431 48.0668 34.4474 58.1611C28.0896 68.8795 24.3371 79.9661 23.2957 91.1113C22.1029 103.893 24.5226 116.397 30.4915 128.28C36.0601 139.372 44.3902 148.925 54.5753 155.907C66.0282 163.759 79.3849 167.911 93.1973 167.911C102.551 167.911 109.185 165.643 115.039 163.644C120.181 161.885 124.622 160.367 130.731 160.324C141.204 160.256 155.249 164.318 158.085 165.42C161.096 166.588 164.562 165.612 166.516 163.049C167.997 161.098 168.907 157.631 166.588 154.263Z" fill="white"/>
</g>
<defs>
<linearGradient id="paint0_linear_431_417" x1="0" y1="0" x2="192" y2="192" gradientUnits="userSpaceOnUse">
<stop stop-color="#ACA5D5"/>
<stop offset="0.234375" stop-color="#918CB8"/>
<stop offset="0.479167" stop-color="#736F97"/>
<stop offset="0.723958" stop-color="#525070"/>
<stop offset="1" stop-color="#323147"/>
</linearGradient>
</defs>
</svg>

<svg xmlns="http://www.w3.org/2000/svg" width="192" height="192" fill="none"><g opacity=".92"><rect width="192" height="192" fill="url(#a)" rx="30"/><path fill="#fff" d="M59.613 99.39c0 4.683 3.805 8.496 8.481 8.496 4.679 0 8.485-3.813 8.485-8.496 0-4.685-3.806-8.494-8.484-8.494-4.677 0-8.482 3.81-8.482 8.494ZM85.65 99.39c0 4.683 3.806 8.496 8.484 8.496 4.677 0 8.48-3.813 8.48-8.496 0-4.685-3.803-8.494-8.48-8.494-4.678 0-8.484 3.81-8.484 8.494ZM111.685 99.39c0 4.683 3.805 8.496 8.483 8.496 4.676 0 8.48-3.813 8.48-8.496 0-4.685-3.804-8.494-8.48-8.494-4.678 0-8.483 3.81-8.483 8.494Z"/><path fill="#fff" d="M166.588 154.263a39.187 39.187 0 0 0-.589-.815c-1.733-2.343-7.007-9.472-8.07-19.058-.443-3.99-4.034-6.866-8.019-6.424-3.985.444-6.858 4.039-6.417 8.029.428 3.836 1.34 7.639 2.733 11.395-5.095-.948-10.61-1.641-15.595-1.608-8.468.062-14.744 2.206-20.282 4.101-5.474 1.872-10.206 3.489-17.15 3.489-24.956 0-42.056-16.337-49.733-31.623-11.313-22.518-4.36-42.97 3.468-56.161 9.708-16.374 27.868-26.954 46.265-26.954 6.285 0 22.367 1.307 35.963 13.423a7.256 7.256 0 0 0 10.252-.6c2.665-3 2.398-7.596-.597-10.263-17.326-15.439-37.674-17.104-45.618-17.104-11.765 0-23.52 3.262-33.99 9.436-10.214 6.022-18.778 14.54-24.762 24.635-6.357 10.718-10.11 21.805-11.151 32.95-1.193 12.782 1.227 25.286 7.195 37.169 5.57 11.092 13.9 20.645 24.084 27.627 11.453 7.852 24.81 12.004 38.622 12.004 9.354 0 15.988-2.268 21.842-4.267 5.142-1.759 9.583-3.277 15.692-3.32 10.473-.068 24.518 3.994 27.354 5.096 3.011 1.168 6.477.192 8.431-2.371 1.481-1.951 2.391-5.418.072-8.786Z"/></g><defs><linearGradient id="a" x1="0" x2="192" y1="0" y2="192" gradientUnits="userSpaceOnUse"><stop stop-color="#ACA5D5"/><stop offset=".234" stop-color="#918CB8"/><stop offset=".479" stop-color="#736F97"/><stop offset=".724" stop-color="#525070"/><stop offset="1" stop-color="#323147"/></linearGradient></defs></svg>
